X:110
T:Spaniard THO4.110, The
M:6/8
L:1/8
Z:vmp. Peter Dunk 2010/11.from a transcription by Fynn Titford-Mock 2007
B:Thompson's Compleat Collection of 200 Favourite Country Dances Volume IV.
Q:3/8=120
K:G
G3D3|B3G3|BAB c2 A|B3G3|d3c3|B3A3|GGG A2 F|G3G3:|
|:b3 bag|a2 f g2 e|d3 dcB|c2 A B2 G|b3 bag|a2 f g2 e|d3 dcB|c2 A G3:|
